Catalina-light/actions/22/action-rss_tag.svg

<svg xmlns="http://www.w3.org/2000/svg" viewBox="0 0 22 22">
  <defs id="defs3051">
    <style type="text/css" id="current-color-scheme">
      .ColorScheme-Text {
        color:#4d4d4d
      }
      </style>
  </defs>
 <path 
     style="fill:currentColor;fill-opacity:1;stroke:none"      
	 class="ColorScheme-Text"
        d="M 12.988281 3 C 12.161601 3 11.006365 3.4779796 10.421875 4.0625 L 3.4375 11.046875 C 2.8530096 11.631365 2.8530096 12.587385 3.4375 13.171875 L 8.828125 18.5625 C 9.4126154 19.14702 10.368605 19.14702 10.953125 18.5625 L 17.9375 11.578125 C 18.52199 10.993605 19 9.8383093 19 9.0117188 L 19 4.5039062 C 18.99997 3.6772857 18.324667 3 17.498047 3 L 12.988281 3 z M 15.5 5 C 16.328421 5 17 5.6715795 17 6.5 C 17 7.3284205 16.328421 8 15.5 8 C 14.671579 8 14 7.3284505 14 6.5 C 14 5.6715795 14.671579 5 15.5 5 z "
     />
</svg>

<svg viewBox="0 0 22 22" xmlns="http://www.w3.org/2000/svg">
<defs>
<style id="current-color-scheme" type="text/css">.ColorScheme-Text {
        color:#363636
      }</style>
</defs>
<path class="ColorScheme-Text" d="m12.988 3c-0.82668 0-1.9819 0.47798-2.5664 1.0625l-6.9844 6.9844c-0.58449 0.58449-0.58449 1.5405 0 2.125l5.3906 5.3906c0.58449 0.58452 1.5405 0.58452 2.125 0l6.9844-6.9844c0.58449-0.58452 1.0625-1.7398 1.0625-2.5664v-4.5078c-3e-5 -0.82662-0.67533-1.5039-1.502-1.5039h-4.5098zm2.5117 2c0.82842 0 1.5 0.67158 1.5 1.5s-0.67158 1.5-1.5 1.5-1.5-0.67155-1.5-1.5c0-0.82842 0.67158-1.5 1.5-1.5z" fill="#363636"/>
</svg>
